X: 1131
T: An Ataireachd Ard
R: waltz
M: 3/4
K: Gmajor
V:1
D2|"G"B,2D2G2|"G"B4A2|"C"G4E2|E2G2E2|"G"(D6|D4)D2|
G2A2B2|"C"c4d2|"Am"c4B2|"C"G2E2G2|"D"(A6|A4)D2|
"G"B,2D2G2|"G"B4A2|G4E2|"C"E2G2E2|"G"(D6|D4)D2|
D2G2B2|"G"d4E2|"C"c4E2|"D"D3ED2|"G"(D6|D4)||
V:2
D2|B,2D2G2|G4F2|E4C2|C2E2C2|C6|B,4D2|
D2F2G2|E4F2|A4G2|E2C2E2|F4E2|D4D2|
B,2D2G2|G4F2|E4C2|C2E2C2|C6|B,4D2|
D2G2G2|B4E2|E4C2|C4C2|(B,6|B,4)||

